ion/calendar-clear-sharp.svg

<svg viewBox="0 0 512 512" xmlns="http://www.w3.org/2000/svg"><g><path d="M32 456v0c0 13.25 10.74 24 24 24h400v0c13.25 0 24-10.75 24-24V192H32Z"/><path d="M480 87.77v0c-.02-13.15-10.69-23.79-23.83-23.78 -.06 0-.12 0-.18 0h-55.92v-32h-48v32H159.91v-32h-48v32H55.99v0c-13.15-.12-23.89 10.45-24 23.59 -.01.05-.01.11-.01.17v56.23h448Z"/></g></svg>

<svg xmlns="http://www.w3.org/2000/svg" viewBox="0 0 512 512"><path d="M32,456a24,24,0,0,0,24,24H456a24,24,0,0,0,24-24V192H32Z"/><path d="M480,87.77A23.8,23.8,0,0,0,456,64H400.08V32h-48V64H159.92V32h-48V64H56A23.8,23.8,0,0,0,32,87.77V144H480Z"/></svg>
